X:1
T:Title
%%score ( 1 2 ) 3
L:1/8
Q:1/4=120
M:6/4
K:Ab
V:1 treble nm="Strings 1, Soprano"
V:2 treble 
V:3 bass nm="Strings 1, Bass"
V:1
 z6 z4 [CE]2 | [A,C]4 [B,D]2 [CE]4 [CE]2 | [EA]4 [EB]2 [Ec]4 [Ec]2 | [Ee]4 [EA]2 A2 G2 [=DA]2 | %4
w: 1.~I~|seem~ to~ hear~ an~|an gel~ choir~ Down~|from~ their~ shin * ing~|
 [EB]6- [EB]4 [Ed]2 | [Ec]4 [EA]2 B2 A2 [DF]2 | [CE]4 [CE]2 [A,C]4 [CA]2 | %7
w: home;~ * And~|in~ my~ heart~ * their~|notes~ in spire~ Sweet~|
 [DF]4 [DF]2 [CE]4 [DG]2 | [CA]12 | .[CE]4 [CE]>[CE] [CE]4 [CE]2 | [EA]4 [EB]2 [Ec]4 [CA]2 | %11
w: an thems~ from~ the~|throne.~|||
 [Ee][Ec]- [Ec]4 [=DA]4 [DA]2 | [EB]6- [EB]4 [Ed]2 | [Ec]4 [Ec]2 c2 B2 [EA]2 | %14
w: |||
 [FA]4 [EG][DF] [CE]4 E2 | [CA]4 [CA]2 [DB]4 [Ec][DB] | [CA]12 |] %17
w: |||
V:2
 x12 | x12 | x12 | z6 .=D6 | x12 | z6 .F6 | x12 | x12 | x12 | x12 | x12 | x12 | x12 | z6 .E6 | %14
 x12 | x12 | x12 |] %17
V:3
 z6 z4 [A,,A,]2 | [A,,E,]4 [A,,E,]2 [A,,A,]4 [A,,A,]2 | [C,A,]4 [E,G,]2 A,4 A,2 | %3
 [A,C]4 [A,C]2 [F,B,]4 [F,B,]2 | [E,G,]6- [E,G,]4 [G,B,]2 | A,4 [C,A,]2 [D,A,]4 [D,A,]2 | %6
 [A,,A,]4 [A,,A,]2 [A,,E,]4 [A,,A,]2 | [D,A,]4 [D,A,]2 [E,A,]4 [E,B,]2 | [A,,A,]12 | %9
 .[A,,A,]4 [A,,A,]>[A,,A,] [A,,A,]4 [A,,A,]2 | [C,A,]4 [B,,G,]2 [A,,A,]4 A,2 | %11
 [A,C]A,- A,4 [F,B,]4 [F,B,]2 | [E,G,]6- [E,G,]4 [G,B,]2 | A,4 [A,,A,]2 [A,,A,]2 [B,,G,]2 [C,A,]2 | %14
 [D,A,]4 [D,A,]2 [A,,A,]4 [C,A,]2 | [F,A,]4 [F,A,]2 [E,G,]4 [E,A,]E, | [A,,E,]12 |] %17

